packages/ui-icons/svg/Solid/collapse.svg

<svg viewBox="0 0 1920 1920" version="1.1" xmlns="http://www.w3.org/2000/svg">
    <path d="M1920,1694 L1920,1806.94118 L0,1806.94118 L0,1694 L1920,1694 Z M1016.47059,338.882353 L1016.47059,993.150588 L1258.84235,750.665882 L1338.80471,830.515294 L960,1209.32 L581.195294,830.515294 L661.157647,750.665882 L903.529412,993.150588 L903.529412,338.882353 L1016.47059,338.882353 Z M1750.58824,113 L169.411765,113 C76.0094118,113 0,189.009412 0,282.411765 L0,1468.29412 L56.4705882,1468.29412 L112.941176,1468.29412 L1807.05882,1468.29412 L1863.52941,1468.29412 L1920,1468.29412 L1920,282.411765 C1920,189.009412 1843.99059,113 1750.58824,113 L1750.58824,113 Z" stroke="none" stroke-width="1" fill-rule="evenodd"/>
</svg>

<svg viewBox="0 0 1920 1920" xmlns="http://www.w3.org/2000/svg">
    <path d="M1920 1694v112.941H0V1694h1920ZM1016.47 338.882v654.269l242.372-242.485 79.963 79.85L960 1209.32 581.195 830.515l79.963-79.85 242.371 242.486V338.882h112.942ZM1750.589 113H169.412C76.009 113 0 189.01 0 282.412v1185.882h1920V282.412C1920 189.009 1843.99 113 1750.588 113Z" fill-rule="evenodd"/>
</svg>
